!!!OTL: Die verzauberte Nachtigall.
!!!OTL-incipit: NACHTIGALL SAG WAS FUER GRUESS
!!!ARE: Europa, Mitteleuropa, Deutschland
!!!SCT: Z1066
!!!TXL: @@DE
!!!YEM: Copyright 1995, estate of Helmut Schaffrath.
**kern	**text
*ICvox	*
*M6/8	*
*k[b-]	*
*d:	*
=1	=1
!LO:TX:a:t=Vorſänger.	!
{4d	Nachti-
8e	.
4f	-gall,
8d	ſag',
=2	=2
4f	was
8g	für
4.a;}	Grüß',
=3	=3
{4a	was
8b/	iſt
4cc	dein
16b/L	Ge-
16aJ	.
=4	=4
4a	-ſang
8g#	ſo
4a;}	ſüß?
!LO:TX:a:t=Alle.	!
{8cc/	ſo
=5	=5
4.b/	ſchau-
4a	-rig,
8cc/	ſo
=6	=6
4.b/	ſchau-
4a;	-rig!
8r}	.
=7	=7
!LO:TX:a:t=Vorſänger.	!
{4a	bald
8b-X/	thut
4g	wohl
8a	mir
=8	=8
4f	dein
8g	Ge-
4.e;}	-ſang,
=9	=9
{4d	bald
8e	wird's
4f	in
8d	dem
=10	=10
4f	Her-
8g	-ʒen
4a;}	bang!
!LO:TX:a:t=Alle.	!
{16gL	ſo
16fJ	.
=11	=11
4.e	ſchau-
4d;	-rig,
8f	ſo
=12	=12
4.e	ſchau-
4d;	-rig!
8r}	.
==	==
!!!AGN: Romanze, Ballade, Tod
!!!ONB: ESAC (Essen Associative Code) Database: ZUCCAL
!!!AMT: compound duple
!!!AIN: vox
!!!EED: Helmut Schaffrath
!!!EEV: 1.0
!!!GTL: II. Gau- Leuschen.
!!!URL-scan: https://www.digitale-sammlungen.de/de/view/bsb11160573?page=146
!!!ENC: Anna Maria Matuszewska
!!!EEV: 2025/03/02
*-	*-
